Numix-Light/scalable/status/rotation-locked-symbolic.svg

<?xml version="1.0" encoding="UTF-8" standalone="no"?>
<svg
   xmlns:dc="http://purl.org/dc/elements/1.1/"
   xmlns:cc="http://creativecommons.org/ns#"
   xmlns:rdf="http://www.w3.org/1999/02/22-rdf-syntax-ns#"
   xmlns:svg="http://www.w3.org/2000/svg"
   xmlns="http://www.w3.org/2000/svg"
   xmlns:sodipodi="http://sodipodi.sourceforge.net/DTD/sodipodi-0.dtd"
   xmlns:inkscape="http://www.inkscape.org/namespaces/inkscape"
   width="16"
   height="16"
   viewBox="0 0 16 16"
   id="svg2"
   version="1.1"
   inkscape:version="0.91 r"
   sodipodi:docname="rotation-locked-symbolic.svg">
  <metadata
     id="metadata10">
    <rdf:RDF>
      <cc:Work
         rdf:about="">
        <dc:format>image/svg+xml</dc:format>
        <dc:type
           rdf:resource="http://purl.org/dc/dcmitype/StillImage" />
        <dc:title />
      </cc:Work>
    </rdf:RDF>
  </metadata>
  <defs
     id="defs8" />
  <sodipodi:namedview
     pagecolor="#ffffff"
     bordercolor="#666666"
     borderopacity="1"
     objecttolerance="10"
     gridtolerance="10"
     guidetolerance="10"
     inkscape:pageopacity="0"
     inkscape:pageshadow="2"
     inkscape:window-width="1920"
     inkscape:window-height="1056"
     id="namedview6"
     showgrid="true"
     inkscape:zoom="32"
     inkscape:cx="11.675821"
     inkscape:cy="9.0132155"
     inkscape:window-x="0"
     inkscape:window-y="24"
     inkscape:window-maximized="1"
     inkscape:current-layer="svg2">
    <inkscape:grid
       type="xygrid"
       id="grid4139" />
  </sodipodi:namedview>
  <path
     style="fill:#353535;fill-opacity:1;fill-rule:evenodd"
     d="M 8.9941406,2 C 5.6878933,2 3.0069234,4.669291 2.9902344,7.96875 L 1,8 4,12 7.0058594,8 4.9921875,7.96875 C 5.0090775,5.774073 6.7935735,4 8.9941406,4 c 1.6878624,0 3.1260184,1.0468185 3.7148434,2.5234375 0.538145,0.024243 1.076498,0.1256463 1.585938,0.3457031 0.226281,0.097744 0.442142,0.2256507 0.65039,0.3671875 C 14.568927,4.2842332 12.051071,2 8.9941406,2 Z"
     id="path4"
     inkscape:connector-curvature="0"
     sodipodi:nodetypes="scccccscscs" />
  <path
     style="opacity:1;fill:#353535;fill-opacity:1;fill-rule:nonzero;stroke:none;stroke-width:3;stroke-linecap:butt;stroke-linejoin:miter;stroke-miterlimit:4;stroke-dasharray:none;stroke-dashoffset:0;stroke-opacity:1"
     d="M 12.5 8.0019531 C 12.089403 8.0019531 11.678805 8.0828032 11.300781 8.2460938 C 10.544733 8.5726747 10 9.2277196 10 10 L 10 11 C 9.446 11 9 11.446 9 12 L 9 15 C 9 15.554 9.446 16 10 16 L 15 16 C 15.554 16 16 15.554 16 15 L 16 12 C 16 11.446 15.554 11 15 11 L 15 10 C 15 9.2277196 14.455267 8.5726748 13.699219 8.2460938 C 13.321195 8.0828032 12.910597 8.0019531 12.5 8.0019531 z M 12.5 9.0078125 C 12.780001 9.0078125 13.060003 9.0600564 13.300781 9.1640625 C 13.782338 9.3720747 14 9.703094 14 10 L 14 11 L 11 11 L 11 10 C 11 9.703094 11.217662 9.3720747 11.699219 9.1640625 C 11.939997 9.0600564 12.219999 9.0078125 12.5 9.0078125 z "
     id="rect4141" />
</svg>

<svg xmlns="http://www.w3.org/2000/svg" viewBox="0 0 16 16">
 <path d="m 8.994 2 c -3.306 0 -5.987 2.669 -6 5.969 l -1.99 0.031 3 4 3.01 -4 -2.01 -0.031 c 0.017 -2.195 1.801 -3.969 4 -3.969 c 1.688 0 3.126 1.047 3.715 2.523 0.538 0.024 1.076 0.126 1.586 0.346 0.226 0.098 0.442 0.226 0.65 0.367 c -0.376 -2.952 -2.894 -5.236 -5.951 -5.236" style="fill:#353535;fill-opacity:1;fill-rule:evenodd"/>
 <path d="m 12.5 8 c -0.411 0 -0.821 0.081 -1.199 0.244 c -0.756 0.327 -1.301 0.982 -1.301 1.754 l 0 1 c -0.554 0 -1 0.446 -1 1 l 0 3 c 0 0.554 0.446 1 1 1 l 5 0 c 0.554 0 1 -0.446 1 -1 l 0 -3 c 0 -0.554 -0.446 -1 -1 -1 l 0 -1 c 0 -0.772 -0.545 -1.427 -1.301 -1.754 c -0.378 -0.163 -0.789 -0.244 -1.199 -0.244 z m 0 1.01 c 0.28 0 0.56 0.052 0.801 0.156 c 0.482 0.208 0.699 0.539 0.699 0.836 l 0 1 l -3 0 l 0 -1 c 0 -0.297 0.218 -0.628 0.699 -0.836 c 0.241 -0.104 0.521 -0.156 0.801 -0.156 z" style="fill:#353535;opacity:1;fill-opacity:1;stroke:none;fill-rule:nonzero"/>
</svg>
